X: 1
T: Nancy Dawson
T: Nancy Dalton
O: American, Kentucky
R: reel
Z: 2012 John Chambers <jc:trillian.mit.edu>
S: Jeff Todd Titon "Old Time Kentucky Fiddle Tunes" p.136 #107
N: From a John Newport field recording of Isham Monday, Thompkinsville, Monroe County, Kentucky, July 5, 1959.
M: C|
L: 1/8
K: E
A,D |\
D2D2 FDED | FA2A A2A2- | AA[AD]B A2F2 | E{F}EFD EDB,D |
A,2D2 FDED | FA2A A2(3(ABc) | d2Ad [BD]{d}B AD | FDEC D2 :|
|: D2- |\
D2A,2 f2[f2A2] | ffed B2B2 | [g2B2][gB]B [g2B2][g2B2] | edcB A2AA |
A2D2 [f2A2][f2A2] | dded BABc | d2Ad [BD]{d}B AD | FDEC D2 :|
